build/assets/images/svg/icons/lk/personal_account/day.svg

<svg width="48" height="48" viewBox="0 0 48 48" fill="none" xmlns="http://www.w3.org/2000/svg">
<rect width="48" height="48" rx="24" fill="#F4F7FB"/>
<path fill-rule="evenodd" clip-rule="evenodd" d="M20 13C20.5523 13 21 13.4477 21 14V15H27V14C27 13.4477 27.4477 13 28 13C28.5523 13 29 13.4477 29 14V15H30C32.2091 15 34 16.7909 34 19V30C34 32.2091 32.2091 34 30 34H18C15.7909 34 14 32.2091 14 30V19C14 16.7909 15.7909 15 18 15H19V14C19 13.4477 19.4477 13 20 13ZM27 17C27 17.5523 27.4477 18 28 18C28.5523 18 29 17.5523 29 17H30C31.1046 17 32 17.8954 32 19V19.5H16V19C16 17.8954 16.8954 17 18 17H19C19 17.5523 19.4477 18 20 18C20.5523 18 21 17.5523 21 17H27ZM32 21.5H16V30C16 31.1046 16.8954 32 18 32H30C31.1046 32 32 31.1046 32 30V21.5Z" fill="#203686"/>
</svg>

<svg width="48" height="48" fill="none" xmlns="http://www.w3.org/2000/svg"><rect width="48" height="48" rx="24" fill="#F4F7FB"/><path fill-rule="evenodd" clip-rule="evenodd" d="M20 13a1 1 0 011 1v1h6v-1a1 1 0 112 0v1h1a4 4 0 014 4v11a4 4 0 01-4 4H18a4 4 0 01-4-4V19a4 4 0 014-4h1v-1a1 1 0 011-1zm7 4a1 1 0 102 0h1a2 2 0 012 2v.5H16V19a2 2 0 012-2h1a1 1 0 102 0h6zm5 4.5H16V30a2 2 0 002 2h12a2 2 0 002-2v-8.5z" fill="#203686"/></svg>
